icons/numix/16x16/mimetypes/application-database.svg

<?xml version="1.0" encoding="UTF-8" standalone="no"?>
<svg
   xmlns:dc="http://purl.org/dc/elements/1.1/"
   xmlns:cc="http://creativecommons.org/ns#"
   xmlns:rdf="http://www.w3.org/1999/02/22-rdf-syntax-ns#"
   xmlns:svg="http://www.w3.org/2000/svg"
   xmlns="http://www.w3.org/2000/svg"
   xmlns:sodipodi="http://sodipodi.sourceforge.net/DTD/sodipodi-0.dtd"
   xmlns:inkscape="http://www.inkscape.org/namespaces/inkscape"
   width="16"
   height="16"
   viewBox="0 0 16 16"
   id="svg2"
   version="1.1"
   inkscape:version="0.48.5 r10040"
   sodipodi:docname="application-database.svg">
  <metadata
     id="metadata22">
    <rdf:RDF>
      <cc:Work
         rdf:about="">
        <dc:format>image/svg+xml</dc:format>
        <dc:type
           rdf:resource="http://purl.org/dc/dcmitype/StillImage" />
      </cc:Work>
    </rdf:RDF>
  </metadata>
  <defs
     id="defs20" />
  <sodipodi:namedview
     pagecolor="#ffffff"
     bordercolor="#666666"
     borderopacity="1"
     objecttolerance="10"
     gridtolerance="10"
     guidetolerance="10"
     inkscape:pageopacity="0"
     inkscape:pageshadow="2"
     inkscape:window-width="1280"
     inkscape:window-height="970"
     id="namedview18"
     showgrid="true"
     inkscape:zoom="20.85965"
     inkscape:cx="10.710417"
     inkscape:cy="7.1990341"
     inkscape:window-x="0"
     inkscape:window-y="0"
     inkscape:window-maximized="1"
     inkscape:current-layer="svg2">
    <inkscape:grid
       type="xygrid"
       id="grid3010" />
  </sodipodi:namedview>
  <path
     style="fill:#a33639;fill-opacity:1"
     d="M 2.667969,-4.457e-4 C 2.324219,-4.457e-4 2,0.3378123 2,0.696447 L 2,15.303108 C 2,15.641365 2.34375,16 2.667969,16 l 10.664062,0 C 13.65625,16 14,15.641365 14,15.303108 L 14,3.9995541 9.9999998,-4.457e-4 z"
     id="path4-6"
     inkscape:connector-curvature="0"
     sodipodi:nodetypes="ssssssccs" />
  <path
     style="fill:#000000;fill-opacity:0.19599998"
     d="m 10.583223,3.3315851 0.0154,0.01953 0.04005,-0.01953 z m 0.02978,0.667969 3.387,3.664062 0,-3.664062 z"
     id="path6"
     inkscape:connector-curvature="0"
     sodipodi:nodetypes="cccccccc" />
  <path
     style="fill:#ffffff;fill-opacity:0.39200003"
     d="m 9.9999998,-4.457e-4 3.9963962,3.9999998 -3.383784,0 c -0.299099,0 -0.6126122,-0.317117 -0.6126122,-0.616216 z"
     id="path8"
     inkscape:connector-curvature="0"
     sodipodi:nodetypes="ccssc" />
  <g
     style="fill:#ffffff"
     id="g10"
     transform="matrix(1.1244508,0,0,1.1252748,-0.99560677,-0.75164845)">
    <path
       d="M 8,6 C 6.527344,6 5.332031,6.375 5.332031,6.832031 l 0,0.667969 c 0,0.460938 1.195313,0.832031 2.667969,0.832031 1.472656,0 2.667969,-0.371093 2.667969,-0.832031 l 0,-0.667969 C 10.667969,6.375 9.472656,6 8,6 z"
       id="path12"
       inkscape:connector-curvature="0" />
    <path
       d="m 7.992188,8.667969 c -1.195313,0 -2.203126,-0.246094 -2.539063,-0.585938 -0.082031,0.082031 -0.121094,0.164063 -0.121094,0.25 l 0,0.667969 c 0,0.460938 1.195313,0.832031 2.667969,0.832031 1.472656,0 2.667969,-0.371093 2.667969,-0.832031 l 0,-0.667969 c 0,-0.085937 -0.04687,-0.167969 -0.128907,-0.25 -0.339843,0.339844 -1.355468,0.585938 -2.546874,0.585938 z"
       id="path14"
       inkscape:connector-curvature="0" />
    <path
       d="m 7.992188,10.167969 c -1.195313,0 -2.203126,-0.246094 -2.539063,-0.585938 -0.082031,0.082031 -0.121094,0.164063 -0.121094,0.25 l 0,0.667969 c 0,0.460938 1.195313,0.832031 2.667969,0.832031 1.472656,0 2.667969,-0.371093 2.667969,-0.832031 l 0,-0.667969 c 0,-0.085937 -0.04687,-0.167969 -0.128907,-0.25 -0.339843,0.339844 -1.355468,0.585938 -2.546874,0.585938 z"
       id="path16"
       inkscape:connector-curvature="0" />
  </g>
</svg>

<svg width="16" xmlns="http://www.w3.org/2000/svg" height="16" viewBox="0 0 16 16" xmlns:xlink="http://www.w3.org/1999/xlink">
<path style="fill:#a33639" d="M 2.667969 0.332031 C 2.324219 0.332031 2 0.65625 2 1 L 2 15 C 2 15.324219 2.34375 15.667969 2.667969 15.667969 L 13.332031 15.667969 C 13.65625 15.667969 14 15.324219 14 15 L 14 4.667969 L 9.667969 0.332031 Z "/>
<path style="fill:#000;fill-opacity:.196" d="M 9.667969 4 L 9.6875 4.019531 L 9.738281 4 Z M 10.332031 4.667969 L 14 8.332031 L 14 4.667969 Z "/>
<path style="fill:#fff;fill-opacity:.392" d="M 9.667969 0.332031 L 14 4.667969 L 10.332031 4.667969 C 10.007812 4.667969 9.667969 4.324219 9.667969 4 Z "/>
<g style="fill:#fff">
<path d="M 8 6 C 6.527344 6 5.332031 6.375 5.332031 6.832031 L 5.332031 7.5 C 5.332031 7.960938 6.527344 8.332031 8 8.332031 C 9.472656 8.332031 10.667969 7.960938 10.667969 7.5 L 10.667969 6.832031 C 10.667969 6.375 9.472656 6 8 6 Z "/>
<path d="M 7.992188 8.667969 C 6.796875 8.667969 5.789062 8.421875 5.453125 8.082031 C 5.371094 8.164062 5.332031 8.246094 5.332031 8.332031 L 5.332031 9 C 5.332031 9.460938 6.527344 9.832031 8 9.832031 C 9.472656 9.832031 10.667969 9.460938 10.667969 9 L 10.667969 8.332031 C 10.667969 8.246094 10.621094 8.164062 10.539062 8.082031 C 10.199219 8.421875 9.183594 8.667969 7.992188 8.667969 Z "/>
<path d="M 7.992188 10.167969 C 6.796875 10.167969 5.789062 9.921875 5.453125 9.582031 C 5.371094 9.664062 5.332031 9.746094 5.332031 9.832031 L 5.332031 10.5 C 5.332031 10.960938 6.527344 11.332031 8 11.332031 C 9.472656 11.332031 10.667969 10.960938 10.667969 10.5 L 10.667969 9.832031 C 10.667969 9.746094 10.621094 9.664062 10.539062 9.582031 C 10.199219 9.921875 9.183594 10.167969 7.992188 10.167969 Z "/>
</g>
</svg>
